T: Nancy
M: 4/4
L: 1/8
K: Dmaj
ABc | dcBA GFED | FDFA d2 A2 | d2 ef gfed | cdec ABcA | dcBA GFED | FDFA d2 A2 | B2 g2 fedc | d4 d2 :|| fg aAfA a2 gf | gAeA g2 fe | f2 df gfed| cdec A2 (3ABc | dcBA GFEC | FCFA d2 A2 | B2 g2 fedc | d4 d2 :||
